X:468321
T:Pizza and Apple Pies
% Nottingham Music Database
S:Mike Richardson 23.3.89, via Phil Rowe
C:Mike Richardson(23.3.89)
Z:Kevin Fraser
M:6/8
Q:3/8=120
R:jig
K:Dbmaj
V:M gstem=up stem=down name="Melody"
{g}d2e  | "Db"{g}f2{e}f     {g}fed | "F"{g}e2{A}e    {g}edc         | "Gb"{g}dcd        {g}def | "Db"{gAGAG}A3 {g}d2c   | "Gb"{g}B{d}B{e}B  {g}Bcd         | "Db"{g}A{d}A{e}A {g}Ade         | "Eb"{g}fgf        {g}fed           | "Ab"{gef}e3 {g}d2e      |
        | "Db"{g}f2{e}f     {g}fed | "F"{g}e2{A}e    {g}edc         | "Gb"{g}dcd        {g}def | "Db"{gAGAG}A3 {g}d2c   | "Gb"{g}B{d}B{e}B  {g}Bcd         | "Db"{g}A{d}A{e}A {g}Adf         | "Eb"{g}efg        "Ab"{g}ABc       | "Db"{Gdc}d3 {g}d2c     ||
       || "Bbm"{g}B{d}B{e}B {g}dcB | "F"{g}c{d}c{e}c {g}edc         | "Bbm"{g}B{d}A{e}B {g}d2e | "F"{g}f3      {AGAG}A3 | "Bbm"{g}B{d}B{e}B {g}dcB         | "F"{g}c{d}c{e}c  {g}edc         | "Bbm"{g}B{d}c{e}B "Ebm"{g}G2{e}B   | "F"{g}c3    {AGAG}A3    |
        | "Bbm"{g}B{d}B{e}B {g}dcB | "F"{g}c{d}c{e}c {g}edc         | "Bbm"{g}B{d}A{e}B {g}d2e | "Db"{g}f3     {g}def   | "Gb"{gf}g2a       "Ebm"{g}a{g}ag | "Db"{a}fa{g}a    "Bbm"{g}ag{a}f | "Ebm"{g}efg       "Ab"{g}A{d}B{e}c | "Db"{Gdc}d3 {gdc}d3    ||
       || {gf}ga{g}a        {g}agf | "Db"{a}fa{g}a   "Bbm"{g}ag{a}f | "Gb"{g}dcd        {g}def | "Db"{gAGAG}A3 {g}d2c   | "Gb"{g}B{d}B{e}B  {g}Bcd         | "Db"{g}A{d}A{e}A {g}Ade         | "Eb"{g}fgf        {g}fed           | "Ab"{gef}e3 {g}d2e      |
        | {gf}ga{g}a        {g}agf | "Db"{a}fa{g}a   "Bbm"{g}ag{a}f | "Gb"{g}dcd        {g}def | "Db"{gAGAG}A3 {g}d2f   | "Gb"{g}B{d}B{e}B  {g}Bcd         | "Db"{g}A{d}A{e}A {g}Adf         | "Eb"{g}efg        "Ab"{g}ABc       | "Db"{Gdc}d3 {g}d2c     ||
       || "Bbm"{g}B{d}B{e}B {g}dcB | "F"{g}c{d}c{e}c {g}edc         | "Bbm"{g}d{e}d{G}d {g}def | "Db"{gAGAG}A3 {g}d2c   | "Gb"{g}B{d}B{e}B  {g}Bcd         | "Db"{g}A{d}A{e}A {g}Ade         | "Eb"{g}fgf        {g}fed           | "Ab"{gef}e3 {g}d2    c  |
        | "Bbm"{g}B{d}B{e}B {g}dcB | "F"{g}c{d}c{e}c {g}edc         | "Bbm"{g}d{e}d{G}d {g}def | "Db"{gAGAG}A3 {g}d2c   | "Gb"{g}B{d}B{e}B  {g}Bcd         | "Db"{g}A{d}A{e}A {g}Adf         | "Eb"{g}efg        "Ab"{g}ABc       | "Db"{Gdc}d3 {g}d2c     ||


